X: 1
T:Paddy Fahy's
C:Paddy Fahy
R:reel
D:Tommy Keane & Jacqueline McCarthy: The Wind among the Reeds
Z:id:hn-reel-693
M:C|
K:G
BG~G2 BdcA|BGBd cA~A2|BG~G2 Bcdg|fgaf gedc|
BG~G2 BdcA|BGBd cA~A2|BG~G2 Bcdg|1 fgaf ~g3z:|2 fgaf ~g3a||
|:bgag dg~g2|fdcA FGAG|bgaf gfdc|defa ~g3a|
bgag dg~g2|fdcA FGAc|BG~G2 Bcdg|1 fgaf ~g3a:|2 fgaf gedc||
"variations"
|:BG~G2 BGcA|BGBd cAFA|BG~G2 Bcde|fgaf gedc|
BG~G2 BGcA|BGBd cAFA|BG~G2 Bcde|1 fgaf gedc:|2 fgaf ~g3a||
|:bgaf dgge|fdcA FGAG|bgaf gfdc|dgfa ~g3a|
bgaf dgge|fdcA FGAc|BG~G2 Bcde|1 fgaf ~g3a:|2 fgaf gedc||
